Desktop/project_createx/public/images/benefits/illustration.svg

<svg width="373" height="506" viewBox="0 0 373 506" fill="none" xmlns="http://www.w3.org/2000/svg">
<path d="M316.083 155.645C316.08 161.204 317.699 166.642 320.74 171.292C323.781 175.941 328.113 179.598 333.201 181.813C338.289 184.028 343.913 184.704 349.38 183.759C354.847 182.813 359.919 180.287 363.972 176.491C368.024 172.695 370.882 167.795 372.192 162.393C373.501 156.991 373.207 151.324 371.344 146.087C369.482 140.851 366.132 136.275 361.708 132.921C357.283 129.567 351.977 127.582 346.442 127.211V155.645H316.083Z" fill="#E5E8ED"/>
<path d="M313.001 152.335H343.359V123.87C342.748 123.821 342.1 123.803 341.464 123.803C337.725 123.803 334.023 124.541 330.569 125.975C327.115 127.409 323.976 129.511 321.333 132.16C318.69 134.81 316.594 137.955 315.164 141.417C313.735 144.878 312.999 148.588 313.001 152.335Z" fill="#00F0B5"/>
<path d="M242.058 28.5652L231.591 21.948L290.089 15.4746L266.479 47.2661L257.925 41.1763L245.164 46.355L242.058 28.5652ZM245.26 40.6009L245.642 32.4492L245.546 32.4013L274.7 21.0849L244.734 30.2435L243.3 29.3324L245.26 40.6009ZM234.841 22.7152L244.877 29.0447L283.111 17.3447L234.841 22.7152ZM287.317 17.3447L247.84 32.641L266.24 45.7796L287.317 17.3447ZM246.741 33.2164L246.168 44.7247L256.873 40.4091L246.741 33.2164Z" fill="#9A9CA5"/>
<path d="M216.526 69.1238C219.133 69.1238 221.55 68.6014 223.541 67.224C226.242 65.3717 227.712 62.807 228.328 60.0998C230.319 60.4798 232.499 60.3373 234.869 59.3399C241.789 56.3953 245.06 48.7961 245.202 48.5112L244.207 48.0837C244.159 48.1787 240.984 55.5879 234.49 58.3425C232.357 59.2449 230.366 59.3874 228.565 59.055C229.039 55.7778 228.281 52.5007 226.953 50.221C225.484 47.7987 223.446 46.8488 221.597 47.7987C219.607 48.8436 219.085 51.2183 220.365 53.9255C221.503 56.3478 224.015 58.865 227.333 59.8624C226.764 62.3321 225.437 64.6593 223.019 66.3216C214.44 72.211 196.144 61.0022 195.954 60.9073L195.385 61.8097C195.859 62.1896 207.235 69.1238 216.526 69.1238ZM222.972 48.5112C224.441 48.5112 225.579 50.1735 225.911 50.7909C227.143 52.8332 227.807 55.8253 227.38 58.77C224.441 57.8676 222.213 55.5879 221.218 53.4506C220.412 51.7883 220.223 49.651 221.976 48.7486C222.356 48.5586 222.687 48.5112 222.972 48.5112Z" fill="#00F0B5"/>
<path d="M222.676 493.77V351.173L183.886 314.695L179.652 505.001H231.502L222.676 493.77Z" fill="#D7DADD"/>
<path d="M212.719 222.019L148.134 217.586L136.391 300.501V505H196.378L190.035 493.611L212.719 222.019Z" fill="#E5E8ED"/>
<path d="M182.589 372.994C196.17 370.843 209.57 367.673 222.676 363.509L183.22 344.633L182.589 372.994Z" fill="#1E212C"/>
<path d="M136.392 322.229V375.071C158.835 377.355 183.276 373.431 200.399 369.546L201.739 353.492L136.392 322.229Z" fill="#1E212C"/>
<path d="M196.378 505L190.035 493.611L212.719 222.02" stroke="#1E212C" stroke-width="1.5" stroke-linecap="round" stroke-linejoin="round"/>
<path d="M138.629 159.354V223.375L229.141 245.666V174.364C229.141 149.082 211.915 127.066 187.413 121.032H187.413C175.662 118.138 163.236 120.817 153.714 128.297C144.191 135.778 138.629 147.229 138.629 159.354V159.354Z" fill="#00F0B5"/>
<path d="M156.554 86.1028V96.3178C156.554 104.216 161.935 111.094 169.59 112.98L185.813 116.975V77.0366L172.324 73.7145C168.525 72.779 164.508 73.6451 161.43 76.0633C158.352 78.4815 156.554 82.1834 156.554 86.1028V86.1028Z" fill="#E5E8ED"/>
<path d="M156.554 96.3184C156.554 104.217 161.935 111.095 169.59 112.98L185.813 116.976" stroke="#1E212C" stroke-width="1.5" stroke-linecap="round" stroke-linejoin="round"/>
<path d="M173.083 94.2904C173.515 94.2904 173.865 93.9395 173.865 93.5065C173.865 93.0736 173.515 92.7227 173.083 92.7227C172.651 92.7227 172.301 93.0736 172.301 93.5065C172.301 93.9395 172.651 94.2904 173.083 94.2904Z" fill="#1E212C"/>
<path d="M161.067 94.2904C161.5 94.2904 161.85 93.9395 161.85 93.5065C161.85 93.0736 161.5 92.7227 161.067 92.7227C160.635 92.7227 160.285 93.0736 160.285 93.5065C160.285 93.9395 160.635 94.2904 161.067 94.2904Z" fill="#1E212C"/>
<path d="M164.592 98.1825V86.1016H158.552" stroke="#1E212C" stroke-width="1.5" stroke-linecap="round" stroke-linejoin="round"/>
<path d="M174.555 86.1025H168.516" stroke="#1E212C" stroke-width="1.5" stroke-linecap="round" stroke-linejoin="round"/>
<path d="M183.886 92.2934V96.4886C186.144 96.4886 187.975 94.6541 187.975 92.3911C187.975 92.2654 187.969 92.1411 187.958 92.0182C187.729 89.4738 183.886 89.7387 183.886 92.2934Z" fill="#E5E8ED"/>
<path d="M183.886 96.4881C186.144 96.4881 187.975 94.6536 187.975 92.3906" stroke="#1E212C" stroke-width="1.5" stroke-linecap="round" stroke-linejoin="round"/>
<path d="M167.894 99.5957C168.401 100.105 169.09 100.39 169.808 100.39C170.526 100.39 171.215 100.105 171.723 99.5957" stroke="#1E212C" stroke-width="1.5" stroke-linecap="round" stroke-linejoin="round"/>
<path d="M164.59 98.1934L167.232 98.844" stroke="#1E212C" stroke-width="1.5" stroke-linecap="round" stroke-linejoin="round"/>
<path d="M156.554 82.7448C156.554 82.7448 165.115 81.6483 167.233 77.4941C167.233 77.4941 169.915 81.8236 173.864 81.4552C173.864 81.4552 176.159 86.1531 180.204 85.324C180.204 85.324 179.89 89.7347 183.886 90.6668" stroke="#1E212C" stroke-width="1.5" stroke-linecap="round" stroke-linejoin="round"/>
<path d="M156.556 90.6671C156.556 90.6671 139.388 80.5343 155.384 69.6645C171.38 58.7948 182.044 68.9276 182.044 68.9276C182.044 68.9276 192.341 71.8199 192.525 77.6509C192.525 77.6509 197.121 82.7451 195.65 87.5351C195.65 87.5351 201.403 102.642 185.932 107.432" stroke="#1E212C" stroke-width="1.5" stroke-linecap="round" stroke-linejoin="round"/>
<path d="M185.931 109.642C187.978 109.398 189.93 108.637 191.604 107.432" stroke="#00F0B5" stroke-width="1.5" stroke-linecap="round" stroke-linejoin="round"/>
<path d="M185.813 113.235V126.755C185.763 131.818 189.391 136.168 194.372 137.019C196.247 137.308 198.113 137.027 199.602 135.62C204.474 131.014 202.084 120.052 197.855 117.381C198.053 114.294 196.336 111.402 193.534 110.104" stroke="#1E212C" stroke-width="1.5" stroke-linecap="round" stroke-linejoin="round"/>
<path d="M138.63 223.375L67.1279 345.092C67.1279 345.092 153.971 377.504 229.141 363.508V231.236" fill="#00F0B5"/>
<path d="M67.1279 345.094C67.1279 345.094 153.971 377.506 229.141 363.51" stroke="#1E212C" stroke-width="1.5" stroke-linecap="round" stroke-linejoin="round"/>
<path d="M212.719 135.166C212.719 135.166 238.719 157.773 242.028 187.066C242.028 187.066 246.945 110.747 248.6 107.431C250.255 104.115 253.012 119.872 253.012 119.872C253.012 119.872 273.421 126.776 262.941 141.699C262.941 141.699 291.316 230.13 229.14 238.974" stroke="#1E212C" stroke-width="1.5" stroke-linecap="round" stroke-linejoin="round"/>
<path d="M156.554 126.265C156.554 126.265 134.79 137.279 117.507 177.073C117.507 177.073 88.8241 130.582 68.5992 123.613C48.3742 116.645 44.3293 115.833 43.5938 116.976C42.8583 118.119 53.8901 126.225 53.8901 126.225C53.8901 126.225 48.3742 143.447 65.2897 146.811C65.2897 146.811 67.8965 220.552 100.056 230.869C132.216 241.186 161.066 198.813 161.066 198.813" stroke="#1E212C" stroke-width="1.5" stroke-linecap="round" stroke-linejoin="round"/>
<path d="M295.606 281.86C293.896 281.86 292.211 281.438 290.703 280.631C289.194 279.823 287.907 278.655 286.957 277.23C286.006 275.806 285.421 274.168 285.253 272.462C285.085 270.757 285.34 269.036 285.995 267.453C286.649 265.869 287.683 264.472 289.005 263.385C290.328 262.297 291.897 261.554 293.575 261.22C295.252 260.885 296.986 260.971 298.623 261.469C300.259 261.967 301.748 262.861 302.957 264.073C304.411 265.531 305.401 267.387 305.802 269.408C306.203 271.429 305.997 273.523 305.21 275.427C304.423 277.33 303.091 278.957 301.381 280.102C299.672 281.247 297.662 281.859 295.606 281.86ZM295.606 264.125C293.919 264.124 292.284 264.71 290.98 265.782C289.676 266.854 288.783 268.346 288.454 270.004C288.124 271.661 288.379 273.382 289.174 274.873C289.97 276.364 291.256 277.532 292.815 278.178C294.373 278.825 296.108 278.91 297.722 278.419C299.336 277.927 300.73 276.89 301.666 275.485C302.603 274.079 303.024 272.391 302.857 270.709C302.691 269.027 301.948 267.455 300.754 266.261C300.08 265.58 299.278 265.041 298.394 264.674C297.51 264.307 296.563 264.121 295.606 264.125Z" fill="#D7DADD"/>
<path d="M311.555 289.484C311.345 289.486 311.137 289.446 310.944 289.364C310.751 289.282 310.577 289.162 310.432 289.009L300.754 278.837C300.596 278.694 300.469 278.521 300.381 278.327C300.293 278.133 300.246 277.924 300.242 277.711C300.239 277.498 300.28 277.287 300.361 277.09C300.443 276.894 300.565 276.716 300.718 276.569C300.871 276.422 301.053 276.308 301.253 276.234C301.452 276.16 301.665 276.129 301.877 276.141C302.089 276.154 302.296 276.21 302.486 276.306C302.675 276.403 302.843 276.537 302.978 276.701L312.667 286.874C312.878 287.091 313.021 287.366 313.076 287.665C313.132 287.963 313.098 288.271 312.979 288.55C312.86 288.829 312.661 289.067 312.408 289.233C312.154 289.399 311.858 289.487 311.555 289.484Z" fill="#D7DADD"/>
<path d="M119.98 63.115L36.5501 76.8134C36.4154 76.8355 36.2774 76.8031 36.1665 76.7232C36.0556 76.6434 35.9809 76.5227 35.9588 76.3877L25.8176 14.3743C25.7955 14.2393 25.8279 14.101 25.9076 13.9899C25.9872 13.8788 26.1077 13.8039 26.2424 13.7818L109.672 0.0834262C109.806 0.0640433 109.943 0.0975584 110.053 0.176914C110.164 0.25627 110.239 0.375302 110.263 0.509069L120.405 62.5225C120.427 62.6575 120.394 62.7958 120.315 62.9069C120.235 63.018 120.115 63.0928 119.98 63.115ZM36.8917 75.7118L119.305 62.1803L109.331 1.18496L26.9169 14.7165L36.8917 75.7118Z" fill="#787A80"/>
<path d="M43.4842 63.1411L43.3826 63.1578C36.0591 64.1198 32.9203 57.4947 32.8883 57.4268C32.8594 57.3629 32.8432 57.2939 32.8409 57.2238C32.8386 57.1537 32.85 57.0837 32.8747 57.0181C32.8993 56.9524 32.9366 56.8922 32.9844 56.8409C33.0322 56.7897 33.0897 56.7484 33.1534 56.7194C33.2172 56.6904 33.286 56.6742 33.356 56.6719C33.426 56.6695 33.4958 56.681 33.5613 56.7057C33.6269 56.7304 33.687 56.7677 33.7381 56.8157C33.7893 56.8636 33.8305 56.9212 33.8594 56.9851C33.9738 57.2381 36.7291 62.9852 43.2873 62.128L43.3177 62.123C46.5285 61.5958 47.3842 52.6003 48.122 44.6069C48.8554 36.332 49.6605 28.4948 52.8362 27.1788C53.4606 26.8887 54.1377 26.7299 54.8257 26.7122C55.5137 26.6945 56.198 26.8184 56.8363 27.0761C60.0876 28.4555 62.0578 33.4847 64.3948 39.2901C65.6233 42.6008 67.0642 45.8284 68.7085 48.9527C71.279 53.5697 75.0892 56.07 78.2198 55.1797C82.0973 54.0725 84.1789 48.0435 83.7616 39.048C82.5823 13.398 90.849 9.20749 94.4324 8.59822L94.5645 8.57653C103.547 7.10176 108.981 11.1754 113.932 23.0752C113.958 23.1396 113.971 23.2084 113.971 23.278C113.971 23.3475 113.957 23.4162 113.93 23.4803C113.876 23.6098 113.773 23.7124 113.643 23.7656C113.513 23.8188 113.368 23.8182 113.239 23.7639C113.109 23.7096 113.007 23.6062 112.954 23.4762C108.163 11.9788 103.215 8.20162 94.7005 9.59966L94.5785 9.61968C87.6184 10.7625 83.949 21.8195 84.7773 39.0066C85.2267 48.6451 82.933 54.9076 78.4862 56.1709C74.9101 57.2076 70.6062 54.4957 67.7999 49.4573C66.1395 46.3076 64.6807 43.0552 63.4322 39.72C61.3022 34.3511 59.2949 29.2861 56.424 28.0638C55.9111 27.8589 55.3614 27.7627 54.8096 27.7813C54.2577 27.7999 53.7157 27.933 53.2177 28.1721C50.5996 29.2606 49.8273 37.4897 49.1457 44.742C48.2287 53.873 47.4571 62.4888 43.4842 63.1411Z" fill="#787A80"/>
<path d="M108.083 39.1637L96.4284 41.0773C96.2937 41.0994 96.1557 41.067 96.0448 40.9872C95.9339 40.9074 95.8592 40.7866 95.8372 40.6516C95.8151 40.5166 95.8474 40.3784 95.9271 40.2673C96.0067 40.1561 96.1272 40.0813 96.2619 40.0592L107.916 38.1456C108.051 38.1235 108.189 38.1559 108.3 38.2357C108.411 38.3156 108.485 38.4363 108.508 38.5713C108.53 38.7063 108.497 38.8446 108.418 38.9557C108.338 39.0668 108.218 39.1416 108.083 39.1637Z" fill="#D7DADD"/>
<path d="M108.868 43.9782L97.2136 45.8917C97.0789 45.9139 96.9408 45.8814 96.83 45.8016C96.7191 45.7218 96.6444 45.6011 96.6223 45.4661C96.6002 45.3311 96.6326 45.1928 96.7122 45.0817C96.7919 44.9706 96.9124 44.8957 97.0471 44.8736L108.701 42.9601C108.836 42.938 108.974 42.9704 109.085 43.0502C109.196 43.13 109.271 43.2507 109.293 43.3857C109.315 43.5207 109.282 43.659 109.203 43.7701C109.123 43.8812 109.003 43.9561 108.868 43.9782Z" fill="#D7DADD"/>
<path d="M103.821 49.7307L97.9987 50.6867C97.864 50.7088 97.726 50.6764 97.6151 50.5965C97.5042 50.5167 97.4295 50.396 97.4075 50.261C97.3854 50.126 97.4177 49.9877 97.4974 49.8766C97.577 49.7655 97.6975 49.6907 97.8323 49.6685L103.654 48.7126C103.789 48.6905 103.927 48.7229 104.038 48.8027C104.149 48.8826 104.224 49.0032 104.246 49.1382C104.268 49.2733 104.235 49.4115 104.156 49.5226C104.076 49.6337 103.956 49.7086 103.821 49.7307Z" fill="#D7DADD"/>
<path d="M47.4812 17.3942L35.8269 19.3077C35.6921 19.3299 35.5541 19.2974 35.4433 19.2176C35.3324 19.1378 35.2577 19.0171 35.2356 18.8821C35.2135 18.7471 35.2459 18.6088 35.3255 18.4977C35.4052 18.3866 35.5256 18.3118 35.6604 18.2896L47.3147 16.3761C47.4495 16.354 47.5875 16.3864 47.6983 16.4662C47.8092 16.546 47.8839 16.6667 47.906 16.8017C47.9254 16.9364 47.8919 17.0733 47.8127 17.1837C47.7335 17.2942 47.6147 17.3696 47.4812 17.3942Z" fill="#D7DADD"/>
<path d="M48.2781 22.2614L36.6237 24.1749C36.489 24.1971 36.351 24.1646 36.2401 24.0848C36.1293 24.005 36.0545 23.8843 36.0325 23.7493C36.0104 23.6143 36.0427 23.476 36.1224 23.3649C36.2021 23.2538 36.3225 23.1789 36.4573 23.1568L48.1116 21.2433C48.246 21.2239 48.3826 21.2574 48.4928 21.3368C48.603 21.4161 48.6783 21.5352 48.7029 21.6689C48.725 21.8039 48.6926 21.9422 48.6129 22.0533C48.5333 22.1644 48.4128 22.2393 48.2781 22.2614Z" fill="#D7DADD"/>
<path d="M43.2271 27.9924L37.405 28.9484C37.2703 28.9705 37.1323 28.9381 37.0214 28.8582C36.9105 28.7784 36.8358 28.6577 36.8137 28.5227C36.7916 28.3877 36.824 28.2494 36.9037 28.1383C36.9833 28.0272 37.1038 27.9524 37.2385 27.9303L43.0606 26.9743C43.1954 26.9522 43.3333 26.9846 43.4442 27.0644C43.5551 27.1443 43.6298 27.265 43.6519 27.4C43.674 27.535 43.6416 27.6732 43.562 27.7843C43.4823 27.8955 43.3618 27.9703 43.2271 27.9924Z" fill="#D7DADD"/>
<path d="M45.8706 271.012L-0.00385832 254.771L11.9805 220.783L12.8127 221.078L1.12293 254.23L46.1652 270.176L45.8706 271.012Z" fill="#00F0B5"/>
<path d="M19.0737 242.376L13.6807 240.467L7.97273 256.654L13.3658 258.564L19.0737 242.376Z" fill="#00F0B5"/>
<path d="M32.5659 239.214L27.1729 237.305L18.9761 260.55L24.3692 262.46L32.5659 239.214Z" fill="#00F0B5"/>
<path d="M46.4126 238.46L41.0195 236.551L31.0498 264.825L36.4428 266.734L46.4126 238.46Z" fill="#00F0B5"/>
</svg>

<svg xmlns="http://www.w3.org/2000/svg" width="373" height="506" fill="none"><path fill="#E5E8ED" d="M316.083 155.645a28.56 28.56 0 0 0 4.657 15.647 28.47 28.47 0 0 0 12.461 10.521 28.41 28.41 0 0 0 30.771-5.322 28.53 28.53 0 0 0 8.22-14.098 28.57 28.57 0 0 0-.848-16.306 28.5 28.5 0 0 0-9.636-13.166 28.4 28.4 0 0 0-15.266-5.71v28.434z"/><path fill="#00F0B5" d="M313.001 152.335h30.358V123.87a24 24 0 0 0-1.895-.067c-3.739 0-7.441.738-10.895 2.172a28.5 28.5 0 0 0-9.236 6.185 28.5 28.5 0 0 0-6.169 9.257 28.6 28.6 0 0 0-2.163 10.918"/><path fill="#9A9CA5" d="m242.058 28.565-10.467-6.617 58.498-6.473-23.61 31.791-8.554-6.09-12.761 5.179zm3.202 12.036.382-8.152-.096-.048L274.7 21.085l-29.966 9.159-1.434-.912zm-10.419-17.886 10.036 6.33 38.234-11.7zm52.476-5.37L247.84 32.64l18.4 13.139zm-40.576 15.871-.573 11.509 10.705-4.316z"/><path fill="#00F0B5" d="M216.526 69.124c2.607 0 5.024-.523 7.015-1.9 2.701-1.852 4.171-4.417 4.787-7.124 1.991.38 4.171.237 6.541-.76 6.92-2.945 10.191-10.544 10.333-10.829l-.995-.427c-.048.095-3.223 7.504-9.717 10.258-2.133.903-4.124 1.045-5.925.713.474-3.277-.284-6.554-1.612-8.834-1.469-2.422-3.507-3.372-5.356-2.422-1.99 1.045-2.512 3.42-1.232 6.127 1.138 2.422 3.65 4.939 6.968 5.936-.569 2.47-1.896 4.797-4.314 6.46-8.579 5.889-26.875-5.32-27.065-5.415l-.569.903c.474.38 11.85 7.314 21.141 7.314m6.446-20.613c1.469 0 2.607 1.662 2.939 2.28 1.232 2.042 1.896 5.034 1.469 7.979-2.939-.902-5.167-3.182-6.162-5.32-.806-1.662-.995-3.799.758-4.701.38-.19.711-.238.996-.238"/><path fill="#D7DADD" d="M222.676 493.77V351.173l-38.79-36.478-4.234 190.306h51.85z"/><path fill="#E5E8ED" d="m212.719 222.019-64.585-4.433-11.743 82.915V505h59.987l-6.343-11.389z"/><path fill="#1E212C" d="M182.589 372.994a274 274 0 0 0 40.087-9.485l-39.456-18.876z"/><path fill="#1E212C" d="M136.392 322.229v52.842c22.443 2.284 46.884-1.64 64.007-5.525l1.34-16.054z"/><path stroke="#1E212C" stroke-linecap="round" stroke-linejoin="round" stroke-width="1.5" d="m196.378 505-6.343-11.389 22.684-271.591"/><path fill="#00F0B5" d="M138.629 159.354v64.021l90.512 22.291v-71.302c0-25.282-17.226-47.298-41.728-53.332a39.32 39.32 0 0 0-33.699 7.265 39.5 39.5 0 0 0-15.085 31.057"/><path fill="#E5E8ED" d="M156.554 86.103v10.215c0 7.898 5.381 14.776 13.036 16.662l16.223 3.995V77.037l-13.489-3.323a12.71 12.71 0 0 0-10.894 2.35 12.77 12.77 0 0 0-4.876 10.039"/><path stroke="#1E212C" stroke-linecap="round" stroke-linejoin="round" stroke-width="1.5" d="M156.554 96.318c0 7.899 5.381 14.777 13.036 16.662l16.223 3.996"/><path fill="#1E212C" d="M173.083 94.29a.783.783 0 1 0-.002-1.565.783.783 0 0 0 .002 1.565M161.067 94.29a.783.783 0 1 0 0-1.566.783.783 0 0 0 0 1.566"/><path stroke="#1E212C" stroke-linecap="round" stroke-linejoin="round" stroke-width="1.5" d="M164.592 98.183V86.102h-6.04M174.555 86.103h-6.039"/><path fill="#E5E8ED" d="M183.886 92.293v4.196a4.093 4.093 0 0 0 4.072-4.47c-.229-2.545-4.072-2.28-4.072.274"/><path stroke="#1E212C" stroke-linecap="round" stroke-linejoin="round" stroke-width="1.5" d="M183.886 96.488a4.093 4.093 0 0 0 4.089-4.097M167.894 99.596a2.704 2.704 0 0 0 3.829 0M164.59 98.193l2.642.651M156.554 82.745s8.561-1.097 10.679-5.25c0 0 2.682 4.329 6.631 3.96 0 0 2.295 4.698 6.34 3.869 0 0-.314 4.41 3.682 5.343"/><path stroke="#1E212C" stroke-linecap="round" stroke-linejoin="round" stroke-width="1.5" d="M156.556 90.667s-17.168-10.133-1.172-21.002 26.66-.737 26.66-.737 10.297 2.892 10.481 8.723c0 0 4.596 5.094 3.125 9.884 0 0 5.753 15.107-9.718 19.897"/><path stroke="#00F0B5" stroke-linecap="round" stroke-linejoin="round" stroke-width="1.5" d="M185.931 109.642a12.2 12.2 0 0 0 5.673-2.21"/><path stroke="#1E212C" stroke-linecap="round" stroke-linejoin="round" stroke-width="1.5" d="M185.813 113.235v13.52c-.05 5.063 3.578 9.413 8.559 10.264 1.875.289 3.741.008 5.23-1.399 4.872-4.606 2.482-15.568-1.747-18.239a7.49 7.49 0 0 0-4.321-7.277"/><path fill="#00F0B5" d="M138.63 223.375 67.128 345.092s86.843 32.412 162.013 18.416V231.236"/><path stroke="#1E212C" stroke-linecap="round" stroke-linejoin="round" stroke-width="1.5" d="M67.128 345.094s86.843 32.412 162.013 18.416M212.719 135.166s26 22.607 29.309 51.9c0 0 4.917-76.319 6.572-79.635s4.412 12.441 4.412 12.441 20.409 6.904 9.929 21.827c0 0 28.375 88.431-33.801 97.275M156.554 126.265s-21.764 11.014-39.047 50.808c0 0-28.683-46.491-48.908-53.46-20.225-6.968-24.27-7.78-25.005-6.637-.736 1.143 10.296 9.249 10.296 9.249s-5.516 17.222 11.4 20.586c0 0 2.606 73.741 34.766 84.058s61.01-32.056 61.01-32.056"/><path fill="#D7DADD" d="M295.606 281.86a10.4 10.4 0 0 1-8.649-4.63 10.43 10.43 0 0 1-.962-9.777 10.41 10.41 0 0 1 7.58-6.233 10.37 10.37 0 0 1 5.048.249 10.4 10.4 0 0 1 4.334 2.604 10.43 10.43 0 0 1 2.253 11.354 10.4 10.4 0 0 1-3.829 4.675 10.4 10.4 0 0 1-5.775 1.758m0-17.735a7.28 7.28 0 0 0-4.626 1.657 7.314 7.314 0 0 0-1.806 9.091 7.3 7.3 0 0 0 3.641 3.305 7.275 7.275 0 0 0 8.851-2.693 7.3 7.3 0 0 0 1.191-4.776 7.3 7.3 0 0 0-2.103-4.448 7.2 7.2 0 0 0-5.148-2.136"/><path fill="#D7DADD" d="M311.555 289.484a1.52 1.52 0 0 1-1.123-.475l-9.678-10.172a1.553 1.553 0 0 1-.036-2.268 1.55 1.55 0 0 1 1.768-.263c.189.097.357.231.492.395l9.689 10.173a1.534 1.534 0 0 1-.259 2.359 1.53 1.53 0 0 1-.853.251"/><path fill="#787A80" d="M119.98 63.115 36.55 76.813a.514.514 0 0 1-.591-.425L25.818 14.374a.516.516 0 0 1 .424-.592L109.672.083a.524.524 0 0 1 .591.426l10.142 62.014a.52.52 0 0 1-.425.592M36.892 75.712l82.413-13.532-9.974-60.995-82.414 13.532z"/><path fill="#787A80" d="m43.484 63.141-.101.017c-7.324.962-10.463-5.663-10.495-5.731a.535.535 0 0 1 .673-.721.53.53 0 0 1 .298.28c.115.252 2.87 6 9.428 5.142l.03-.005c3.212-.527 4.067-9.523 4.805-17.516.733-8.275 1.538-16.112 4.714-17.428a5.03 5.03 0 0 1 4-.103c3.252 1.38 5.222 6.409 7.559 12.214a82 82 0 0 0 4.314 9.663c2.57 4.617 6.38 7.117 9.51 6.227 3.878-1.108 5.96-7.136 5.543-16.132-1.18-25.65 7.087-29.84 10.67-30.45l.132-.021c8.983-1.475 14.417 2.598 19.368 14.498a.54.54 0 0 1-.002.405.527.527 0 0 1-.976-.004C108.163 11.98 103.215 8.202 94.701 9.6l-.122.02c-6.96 1.143-10.63 12.2-9.802 29.387.45 9.638-1.844 15.9-6.29 17.164-3.577 1.037-7.88-1.675-10.687-6.714a84 84 0 0 1-4.368-9.737c-2.13-5.369-4.137-10.434-7.008-11.656a4 4 0 0 0-3.206.108c-2.618 1.089-3.39 9.318-4.072 16.57-.917 9.131-1.689 17.747-5.662 18.4"/><path fill="#D7DADD" d="m108.083 39.164-11.655 1.913a.514.514 0 0 1-.5-.81c.079-.11.2-.186.334-.208l11.654-1.913a.515.515 0 0 1 .167 1.018M108.868 43.978l-11.654 1.914a.514.514 0 0 1-.592-.426.517.517 0 0 1 .425-.592l11.654-1.914a.515.515 0 0 1 .167 1.018M103.821 49.73l-5.822.957a.514.514 0 0 1-.591-.426.516.516 0 0 1 .424-.593l5.822-.955a.515.515 0 0 1 .167 1.018M47.481 17.394l-11.654 1.914a.514.514 0 0 1-.591-.426.517.517 0 0 1 .424-.592l11.655-1.914a.514.514 0 0 1 .498.808.53.53 0 0 1-.332.21M48.278 22.261l-11.654 1.914a.514.514 0 0 1-.592-.426.516.516 0 0 1 .425-.592l11.655-1.914a.524.524 0 0 1 .59.426.516.516 0 0 1-.424.592M43.227 27.992l-5.822.956a.514.514 0 0 1-.591-.425.516.516 0 0 1 .425-.593l5.822-.956a.514.514 0 0 1 .501.81.52.52 0 0 1-.335.208"/><path fill="#00F0B5" d="M45.87 271.012-.003 254.771l11.984-33.988.833.295-11.69 33.152 45.042 15.946z"/><path fill="#00F0B5" d="m19.074 242.376-5.393-1.909-5.708 16.187 5.393 1.91zM32.566 239.214l-5.393-1.909-8.197 23.245 5.393 1.91zM46.413 238.46l-5.393-1.909-9.97 28.274 5.393 1.909z"/></svg>
